X:1
T:[ID 3-59]
T:[ID 3-59]
T:Bezeichnung standardisiert: Allegro Allegro
T:Urheber unbekannt Datum in der hier transkribierten schriftlichen Quelle: 1767
C:Urheber unbekannt
C:Datum in der hier transkribierten schriftlichen Quelle: 1767
%%score 1 2
L:1/8
M:2/4
K:D
V:1 treble nm="Primo"
V:2 treble nm="Secondo"
V:1
 A | d/e/ f2 e | f/g/ a2 g | fad'a | fe/f/ df | eAAe | fAAf | g2 fe/f/ | e3 :: e | eAeA | fAfA | %12
 e/f/ g2 f | e3 f | dA de | f2 z g | agfe | d2 z a | b2 c'2 | d'2 z a | bg gb/g/ | af fa/f/ | %22
 ge eg/e/ | fd df/d/ | g2 f2 | e2 z a | fad'a | f2 Te2 | d3 :| %29
V:2
 !fermata!F | F d2 c | d/e/ f2 e | dffe | dA Fd | AeeA | AffA | e2 d/c/d | c3 :: c | AeAe | AfAf | %12
 A e2 d | c3 d | FD FA | dAeA | fedA | FAdf | g2 e2 | fAdf | ge eg/e/ | fd df/d/ | bg gb/g/ | %23
 af fa/f/ | eA dA | c2 z f | dffe | d2 TA2 | F3 :| %29

